X:1
L:1/4
Q:1/4=200
M:6/8
V:1
V:2 clef=bass
K:F
[V:1] [A^ce]3/4 z/4 [A^ce]3/4 z/4 d/^c/ | [Ad]3/4 z/4 [Ad]3/4 z/4 [A=ce]3/4 z/4 | [cdf]3/4 z/4 f/ f/[Bdg]3/4 z/4 | [da]/f/ z [Af]/[Ad]/ |
[V:2] [A,,,A,,]3/4 z/4 [A,,,A,,]/ [A,,,A,,]3/4 z/4 [A,,,A,,]/ | [D,,D,]3/4 z/4 [D,,D,]3/4 z/4 [C,,C,]3/4 z/4 | [C,,C,]3/4 z/4 [C,,C,]3/4 z/4 [B,,,B,,]3/4 z/4 | [A,,,A,,]3/4 z/4 [A,,,A,,]/ [A,,,A,,]3/4 z/4 [A,,,A,,]/ |